X:50
T:Pretty Girls of Monaghan. Alex50.50
M:C
L:1/8
Z:vmp. Peter Dunk 2015
B:Alexander's 50 New Scotch & Irish Reels and H'pipes, ca1825
Q:1/4=140
K:D
A|dBAF D2 DF|GFGA BEEc|dBAF DFAF|GBAG FD D:|
|:A|(dc).d.e f2 ed|(e^d)ef eBBc|defg a2 gf|faeg fd d:|
|:d|BdAd BdAd|Bdfd ge e2|Bdce dfeg|fbag fd d2:|

